X: 11270
T: Dusty Windowsills
R: jig
M: 6/8
K: Adorian
|:A2B cBA|eAB cBA|~GAG EGG|DGG EFG|
A2B cBA|e2d efg|age dBG|1 ABA A2E:|2 ABA A2g||
|:~aba age|dBd ~gag|~gag gfe|dBA G2G|
EGG DGG|EFG ABc|Bed BAG|1 EFG A2g:|2 EFG A2G||
|:~ABA g2f|~ABA gdB|~GAG e2d|~GAG edB|
~ABA g2f|~ABA efg|age dBG|EFG A3:|

